;START_OF_HEADER
;HEADER_VERSION:0.1
;FLAVOR:Griffin
;GENERATOR.NAME:Cura_SteamEngine
;GENERATOR.VERSION:5.6.0
;GENERATOR.BUILD_DATE:2023-11-28
;TARGET_MACHINE.NAME:Ultimaker S5
;EXTRUDER_TRAIN.0.INITIAL_TEMPERATURE:205
;EXTRUDER_TRAIN.0.MATERIAL.VOLUME_USED:4094
;EXTRUDER_TRAIN.0.MATERIAL.GUID:44a029e6-e31b-4c9e-a12f-9282e29a92ff
;EXTRUDER_TRAIN.0.NOZZLE.DIAMETER:0.4
;EXTRUDER_TRAIN.0.NOZZLE.NAME:AA 0.4
;BUILD_PLATE.INITIAL_TEMPERATURE:60
;BUILD_VOLUME.TEMPERATURE:28
;PRINT.TIME:1023
;PRINT.GROUPS:1
;PRINT.SIZE.MIN.X:153.226
;PRINT.SIZE.MIN.Y:131.492
;PRINT.SIZE.MIN.Z:0.2
;PRINT.SIZE.MAX.X:176.638
;PRINT.SIZE.MAX.Y:169.949
;PRINT.SIZE.MAX.Z:21.2
;SLICE_UUID:341250ea-b4d2-4f1f-ac7e-da7777d8680a
;END_OF_HEADER
;Generated with Cura_SteamEngine 5.6.0
T0
M82 ;absolute extrusion mode

G92 E0
M190 S60
M109 S205
G280 S1
G0 Z20.001
G1 F2700 E-6.5
;LAYER_COUNT:106
;LAYER:0
M106 S255
M204 S2000
M205 X30 Y30
G1 F600 Z2.2
G0 F9000 X176.012 Y149.962 Z2.2
;TYPE:SKIRT
G1 F600 Z0.2
G1 F2700 E0
G1 F4080 X174.268 Y151.9 E0.03269
G1 X172.507 Y153.161 E0.05986
G1 X169.528 Y153.839 E0.09817
G1 X166.407 Y153.21 E0.1381
G1 X164.925 Y152.358 E0.15953
G1 X164.583 Y152.635 E0.16505
G1 X162.377 Y153.558 E0.19504
G1 X160.447 Y153.706 E0.21931
G1 X158.085 Y153.413 E0.24916
G1 X156.337 Y152.572 E0.27349
G1 X154.243 Y150.225 E0.31293
G1 X153.226 Y147.32 E0.35153
G1 X153.558 Y144.116 E0.39192
G1 X154.745 Y142.127 E0.42097
G1 X156.203 Y140.571 E0.44771
G1 X157.755 Y139.543 E0.47105
G1 X159.299 Y139.241 E0.49078
G1 X161.909 Y139.238 E0.52351
G1 X164.215 Y140.023 E0.55406
G1 X165.01 Y140.754 E0.56761
G1 X166.622 Y139.603 E0.59244
G1 X169.229 Y139.152 E0.62562
G1 X171.269 Y139.351 E0.65133
G1 X173.412 Y140.25 E0.68047
G1 X175.172 Y141.947 E0.71113
G1 X176.315 Y143.877 E0.73926
G1 X176.638 Y145.701 E0.76249
G1 X176.594 Y148.297 E0.79505
G1 X176.012 Y149.962 E0.81717
G0 F9000 X175.66 Y149.755
G1 F4080 X173.999 Y151.601 E0.84831
G1 X172.34 Y152.789 E0.8739
G1 X169.523 Y153.43 E0.91012
G1 X166.55 Y152.831 E0.94816
G1 X165.139 Y152.023 E0.96855
G1 X164.931 Y151.814 E0.97224
G1 X164.429 Y152.266 E0.98072
G1 X162.283 Y153.164 E1.00989
G1 X160.455 Y153.304 E1.03288
G1 X158.197 Y153.024 E1.06141
G1 X156.582 Y152.247 E1.08389
G1 X154.595 Y150.02 E1.12131
G1 X153.633 Y147.272 E1.15783
G1 X153.947 Y144.244 E1.196
G1 X155.064 Y142.372 E1.22334
G1 X156.465 Y140.877 E1.24903
G1 X157.908 Y139.921 E1.27074
G1 X159.34 Y139.641 E1.28904
G1 X161.842 Y139.638 E1.32041
G1 X164.007 Y140.375 E1.34909
G1 X164.978 Y141.268 E1.36564
G1 X166.781 Y139.981 E1.39342
G1 X169.244 Y139.555 E1.42476
G1 X171.169 Y139.743 E1.44902
G1 X173.188 Y140.59 E1.47647
G1 X174.856 Y142.198 E1.50553
G1 X175.934 Y144.018 E1.53205
G1 X176.237 Y145.733 E1.55389
G1 X176.195 Y148.225 E1.58515
G1 X175.66 Y149.755 E1.60548
G0 F9000 X175.308 Y149.548
G1 F4080 X173.73 Y151.302 E1.63506
G1 X172.173 Y152.417 E1.65908
G1 X169.518 Y153.021 E1.69322
G1 X166.693 Y152.452 E1.72936
G1 X165.338 Y151.676 E1.74894
G1 X164.957 Y151.229 E1.75631
G1 X164.275 Y151.897 E1.76828
G1 X162.189 Y152.77 E1.79664
G1 X160.463 Y152.902 E1.81835
G1 X158.309 Y152.635 E1.84556
G1 X156.827 Y151.922 E1.86619
G1 X154.947 Y149.815 E1.9016
G1 X154.04 Y147.224 E1.93603
G1 X154.336 Y144.372 E1.97198
G1 X155.385 Y142.614 E1.99765
G1 X156.722 Y141.187 E2.02218
G1 X158.063 Y140.299 E2.04235
G1 X159.381 Y140.041 E2.05919
G1 X161.775 Y140.038 E2.08921
G1 X163.799 Y140.727 E2.11602
G1 X164.983 Y141.816 E2.1362
G1 X165.15 Y141.637 E2.13927
G1 X166.939 Y140.359 E2.16684
G1 X169.259 Y139.958 E2.19636
G1 X171.069 Y140.135 E2.21917
G1 X172.964 Y140.93 E2.24494
G1 X174.54 Y142.45 E2.2724
G1 X175.553 Y144.159 E2.29731
G1 X175.836 Y145.764 E2.31775
G1 X175.796 Y148.153 E2.34771
G1 X175.308 Y149.548 E2.36624
G0 F9000 X174.956 Y149.341
G1 F4080 X173.461 Y151.003 E2.39428
G1 X172.006 Y152.045 E2.41672
G1 X169.513 Y152.612 E2.44878
G1 X166.836 Y152.073 E2.48303
G1 X165.537 Y151.329 E2.5018
G1 X165 Y150.627 E2.51288
G1 X164.049 Y151.558 E2.52957
G1 X162.095 Y152.376 E2.55614
G1 X160.472 Y152.5 E2.57655
G1 X158.421 Y152.246 E2.60247
G1 X157.072 Y151.597 E2.62124
G1 X155.299 Y149.61 E2.65463
G1 X154.447 Y147.176 E2.68697
G1 X154.725 Y144.5 E2.72071
G1 X155.706 Y142.856 E2.74472
G1 X156.979 Y141.497 E2.76807
G1 X158.218 Y140.677 E2.7867
G1 X159.423 Y140.441 E2.8021
G1 X161.708 Y140.438 E2.83076
G1 X163.591 Y141.079 E2.8557
G1 X165.019 Y142.392 E2.88003
G1 X165.383 Y141.962 E2.88709
G1 X167.097 Y140.737 E2.91351
G1 X169.274 Y140.361 E2.94122
G1 X170.969 Y140.527 E2.96257
G1 X172.74 Y141.27 E2.98666
G1 X174.224 Y142.701 E3.01251
G1 X175.171 Y144.3 E3.03582
G1 X175.435 Y145.796 E3.05487
G1 X175.397 Y148.081 E3.08352
G1 X174.956 Y149.341 E3.10027
G0 F9000 X174.604 Y149.135
G1 F4080 X173.195 Y150.702 E3.12669
G1 X171.839 Y151.673 E3.14761
G1 X169.508 Y152.203 E3.17758
G1 X166.979 Y151.694 E3.20993
G1 X165.806 Y151.022 E3.22689
G1 X165.043 Y150.025 E3.24263
G1 X163.824 Y151.218 E3.26402
G1 X162 Y151.982 E3.28882
G1 X160.481 Y152.098 E3.30792
G1 X158.533 Y151.857 E3.33254
G1 X157.317 Y151.272 E3.34946
G1 X155.651 Y149.405 E3.38084
G1 X154.854 Y147.128 E3.41109
G1 X155.114 Y144.628 E3.44261
G1 X156.027 Y143.098 E3.46496
G1 X157.236 Y141.807 E3.48714
G1 X158.373 Y141.055 E3.50423
G1 X159.465 Y140.841 E3.51819
G1 X161.641 Y140.838 E3.54547
G1 X163.383 Y141.431 E3.56855
G1 X164.831 Y142.762 E3.59322
G1 X165.017 Y143.037 E3.59738
G1 X165.616 Y142.287 E3.60942
G1 X167.255 Y141.115 E3.63468
G1 X169.288 Y140.764 E3.66055
G1 X170.869 Y140.919 E3.68048
G1 X172.516 Y141.61 E3.70287
G1 X173.908 Y142.952 E3.72712
G1 X174.789 Y144.441 E3.74882
G1 X175.034 Y145.828 E3.76648
G1 X174.998 Y148.009 E3.79384
G1 X174.604 Y149.135 E3.80879
G0 F9000 X174.252 Y148.929
G1 F4080 X172.929 Y150.401 E3.83361
G1 X171.672 Y151.301 E3.853
G1 X169.503 Y151.794 E3.8809
G1 X167.122 Y151.315 E3.91135
G1 X166.075 Y150.715 E3.92649
G1 X165.007 Y149.32 E3.94852
G1 X164.744 Y149.763 E3.95498
G1 X163.599 Y150.878 E3.97502
G1 X161.905 Y151.588 E3.99805
G1 X160.49 Y151.696 E4.01585
G1 X158.648 Y151.468 E4.03913
G1 X157.56 Y150.945 E4.05426
G1 X156.003 Y149.2 E4.08359
G1 X155.261 Y147.08 E4.11176
G1 X155.503 Y144.756 E4.14106
G1 X156.348 Y143.34 E4.16174
G1 X157.493 Y142.117 E4.18275
G1 X158.528 Y141.433 E4.19831
G1 X159.507 Y141.241 E4.21082
G1 X161.574 Y141.238 E4.23674
G1 X163.175 Y141.783 E4.25795
G1 X164.56 Y143.056 E4.28154
G1 X164.97 Y143.736 E4.29149
G1 X165.894 Y142.58 E4.31005
G1 X167.413 Y141.493 E4.33348
G1 X169.302 Y141.167 E4.35751
G1 X170.769 Y141.311 E4.376
G1 X172.292 Y141.95 E4.39671
G1 X173.592 Y143.203 E4.41935
G1 X174.408 Y144.582 E4.43945
G1 X174.633 Y145.859 E4.45571
G1 X174.599 Y147.937 E4.48177
G1 X174.252 Y148.929 E4.49495
G0 F9000 X173.9 Y148.724
G1 F4080 X172.663 Y150.1 E4.51815
G1 X171.505 Y150.929 E4.53601
G1 X169.498 Y151.385 E4.56182
G1 X167.265 Y150.936 E4.59039
G1 X166.344 Y150.408 E4.6037
G1 X164.953 Y148.59 E4.63241
G1 X164.465 Y149.476 E4.64509
G1 X163.374 Y150.538 E4.66418
G1 X161.81 Y151.194 E4.68545
G1 X160.499 Y151.294 E4.70194
G1 X158.763 Y151.079 E4.72388
G1 X157.805 Y150.619 E4.7372
G1 X156.355 Y148.993 E4.76452
G1 X155.668 Y147.032 E4.79058
G1 X155.892 Y144.884 E4.81766
G1 X156.669 Y143.582 E4.83668
G1 X157.752 Y142.425 E4.85655
G1 X158.684 Y141.81 E4.87055
G1 X159.544 Y141.641 E4.88155
G1 X161.507 Y141.638 E4.90616
G1 X162.966 Y142.135 E4.92549
G1 X164.248 Y143.313 E4.94732
G1 X164.998 Y144.558 E4.96555
G1 X165.189 Y144.103 E4.97174
G1 X166.172 Y142.873 E4.99148
G1 X167.571 Y141.871 E5.01306
G1 X169.316 Y141.57 E5.03527
G1 X170.669 Y141.703 E5.05232
G1 X172.068 Y142.29 E5.07135
G1 X173.276 Y143.454 E5.09238
G1 X174.027 Y144.723 E5.11087
G1 X174.232 Y145.89 E5.12573
G1 X174.2 Y147.865 E5.1505
G1 X173.9 Y148.724 E5.16191
G0 F9000 X173.548 Y148.517
G1 F4080 X172.394 Y149.801 E5.18356
G1 X171.338 Y150.557 E5.19985
G1 X169.493 Y150.976 E5.22358
G1 X167.408 Y150.557 E5.25024
G1 X166.613 Y150.101 E5.26174
G1 X165.348 Y148.447 E5.28785
G1 X164.934 Y147.348 E5.30258
G1 X164.762 Y148.11 E5.31237
G1 X164.145 Y149.229 E5.3284
G1 X163.149 Y150.198 E5.34582
G1 X161.715 Y150.8 E5.36533
G1 X160.508 Y150.892 E5.38051
G1 X158.878 Y150.69 E5.40111
G1 X158.05 Y150.293 E5.41262
G1 X156.705 Y148.784 E5.43797
G1 X156.075 Y146.986 E5.46186
G1 X156.281 Y145.012 E5.48675
G1 X156.99 Y143.824 E5.5041
G1 X158.011 Y142.733 E5.52284
G1 X158.837 Y142.188 E5.53525
G1 X159.586 Y142.041 E5.54482
G1 X161.44 Y142.038 E5.56807
G1 X162.758 Y142.487 E5.58553
G1 X163.933 Y143.567 E5.60554
G1 X164.706 Y144.849 E5.62432
G1 X165.012 Y146.034 E5.63967
G1 X165.111 Y145.394 E5.64779
G1 X165.502 Y144.353 E5.66173
G1 X166.452 Y143.164 E5.68082
G1 X167.729 Y142.249 E5.70052
G1 X169.33 Y141.973 E5.72089
G1 X170.569 Y142.095 E5.7365
G1 X171.846 Y142.631 E5.75387
G1 X172.959 Y143.703 E5.77325
G1 X173.646 Y144.864 E5.79017
G1 X173.831 Y145.921 E5.80362
G1 X173.801 Y147.793 E5.8271
G1 X173.548 Y148.517 E5.83672
G0 F9000 X173.25 Y148.25
G1 F4080 X172.125 Y149.502 E5.85783
G1 X171.171 Y150.185 E5.87254
G1 X169.488 Y150.567 E5.89418
G1 X167.551 Y150.178 E5.91896
G1 X166.882 Y149.794 E5.92863
G1 X165.701 Y148.249 E5.95302
G1 X165.304 Y147.195 E5.96714
G1 X165.282 Y146.999 E5.96962
G1 X165.485 Y145.535 E5.98815
G1 X165.854 Y144.553 E6.00131
G1 X166.73 Y143.457 E6.0189
G1 X167.887 Y142.627 E6.03676
G1 X169.344 Y142.376 E6.0553
G1 X170.469 Y142.487 E6.06948
G1 X171.624 Y142.972 E6.08518
G1 X172.642 Y143.952 E6.1029
G1 X173.265 Y145.005 E6.11825
G1 X173.43 Y145.952 E6.1303
G1 X173.401 Y147.787 E6.15332
G1 X173.25 Y148.25 E6.15942
G0 F9000 X172.952 Y147.983
G1 F4080 X171.856 Y149.203 E6.17999
G1 X171.004 Y149.813 E6.19313
G1 X169.483 Y150.158 E6.21269
G1 X167.63 Y149.786 E6.23639
G1 X167.2 Y149.551 E6.24254
G1 X166.054 Y148.051 E6.26621
G1 X165.678 Y147.054 E6.27957
G1 X165.875 Y145.634 E6.29755
G1 X166.206 Y144.753 E6.30935
G1 X167.008 Y143.75 E6.32545
G1 X168.046 Y143.005 E6.34148
G1 X169.358 Y142.779 E6.35817
G1 X170.369 Y142.879 E6.37091
G1 X171.4 Y143.312 E6.38494
G1 X172.326 Y144.204 E6.40106
G1 X172.884 Y145.146 E6.41479
G1 X173.029 Y145.982 E6.42543
G1 X173.001 Y147.781 E6.44799
G1 X172.952 Y147.983 E6.4506
G0 F9000 X172.601 Y147.775
G1 F4080 X171.587 Y148.904 E6.46963
G1 X170.837 Y149.441 E6.4812
G1 X169.478 Y149.749 E6.49867
G1 X167.709 Y149.394 E6.5213
G1 X167.518 Y149.308 E6.52392
G1 X166.407 Y147.853 E6.54688
G1 X166.088 Y147.008 E6.55821
G1 X166.265 Y145.733 E6.57435
G1 X166.558 Y144.953 E6.5848
G1 X167.286 Y144.043 E6.59941
G1 X168.205 Y143.383 E6.6136
G1 X169.372 Y143.182 E6.62845
G1 X170.269 Y143.271 E6.63976
G1 X171.176 Y143.652 E6.65209
G1 X172.01 Y144.456 E6.66662
G1 X172.503 Y145.287 E6.67874
G1 X172.628 Y146.012 E6.68796
G1 X172.601 Y147.775 E6.71007
G0 F9000 X172.203 Y147.619
G1 F4080 X171.318 Y148.605 E6.72669
G1 X170.67 Y149.069 E6.73668
G1 X169.473 Y149.34 E6.75207
G1 X167.788 Y149.002 E6.77363
G1 X166.76 Y147.655 E6.79488
G1 X166.498 Y146.962 E6.80417
G1 X166.655 Y145.832 E6.81847
G1 X166.91 Y145.153 E6.82757
G1 X167.564 Y144.336 E6.84069
G1 X168.364 Y143.761 E6.85305
G1 X169.386 Y143.585 E6.86605
G1 X170.169 Y143.663 E6.87592
G1 X170.952 Y143.992 E6.88657
G1 X171.694 Y144.708 E6.8995
G1 X172.122 Y145.429 E6.91002
G1 X172.228 Y146.006 E6.91737
G1 X172.203 Y147.619 E6.9376
G0 F9000 X171.805 Y147.463
G1 F4080 X171.049 Y148.306 E6.9518
G1 X170.503 Y148.697 E6.96022
G1 X169.468 Y148.931 E6.97353
G1 X168.013 Y148.64 E6.99214
G1 X167.078 Y147.413 E7.01148
G1 X166.908 Y146.915 E7.01808
G1 X167.051 Y145.887 E7.0311
G1 X167.222 Y145.403 E7.03754
G1 X167.84 Y144.631 E7.04994
G1 X168.524 Y144.139 E7.0605
G1 X169.4 Y143.988 E7.07165
G1 X170.069 Y144.055 E7.08008
G1 X170.728 Y144.332 E7.08905
G1 X171.378 Y144.96 E7.10038
G1 X171.742 Y145.572 E7.10931
G1 X171.828 Y146 E7.11478
G1 X171.805 Y147.463 E7.13313
G0 F9000 X171.407 Y147.307
G1 F4080 X170.751 Y148.039 E7.14546
G1 X170.336 Y148.325 E7.15178
G1 X169.463 Y148.522 E7.163
G1 X168.241 Y148.278 E7.17863
G1 X167.396 Y147.17 E7.1961
G1 X167.304 Y146.97 E7.19887
G1 X167.447 Y145.942 E7.21188
G1 X167.577 Y145.6 E7.21647
G1 X168.152 Y144.881 E7.22801
G1 X168.682 Y144.518 E7.23607
G1 X169.36 Y144.386 E7.24473
G1 X170.029 Y144.453 E7.25316
G1 X170.45 Y144.62 E7.25884
G1 X171.066 Y145.215 E7.26958
G1 X171.352 Y145.661 E7.27623
G1 X171.428 Y145.994 E7.28051
G1 X171.407 Y147.307 E7.29698
G0 F9000 X171.009 Y147.151
G1 F4080 X170.453 Y147.772 E7.30743
G1 X170.172 Y147.952 E7.31162
G1 X169.458 Y148.113 E7.32079
G1 X168.468 Y147.916 E7.33345
G1 X167.714 Y146.927 E7.34905
G1 X167.843 Y145.997 E7.36082
G1 X167.927 Y145.802 E7.36349
G1 X168.464 Y145.131 E7.37426
G1 X168.897 Y144.855 E7.3807
G1 X169.32 Y144.784 E7.38608
G1 X169.989 Y144.851 E7.39451
G1 X170.227 Y144.961 E7.3978
G1 X170.788 Y145.503 E7.40758
G1 X170.967 Y145.768 E7.41159
G1 X171.028 Y145.987 E7.41444
G1 X171.009 Y147.151 E7.42904
G0 F9000 X170.611 Y147.017
G1 F4080 X170.161 Y147.499 E7.43731
G1 X169.975 Y147.604 E7.43999
G1 X169.452 Y147.704 E7.44667
G1 X168.695 Y147.554 E7.45635
G1 X168.133 Y146.817 E7.46797
G1 X168.239 Y146.052 E7.47765
G1 X168.776 Y145.381 E7.48843
G1 X168.981 Y145.246 E7.49151
G1 X169.28 Y145.182 E7.49534
G1 X169.949 Y145.249 E7.50378
G1 X170.51 Y145.791 E7.51356
G1 X170.628 Y145.98 E7.51635
G1 X170.611 Y147.017 E7.52936
G0 F9000 X169.852 Y146.709
G1 F4080 X169.748 Y146.838 E7.53144
G1 X169.541 Y146.909 E7.53418
G1 X169.119 Y146.876 E7.53949
G1 X168.93 Y146.615 E7.54353
G1 X168.945 Y146.449 E7.54562
G1 X169.28 Y145.982 E7.55283
G1 X169.602 Y145.969 E7.55687
G1 X169.85 Y146.21 E7.5612
G1 X169.852 Y146.709 E7.56746
G0 F9000 X170.213 Y146.881
G1 F4080 X169.878 Y147.216 E7.5734
G1 X169.51 Y147.308 E7.57816
G1 X168.918 Y147.222 E7.58566
G1 X168.536 Y146.686 E7.59392
G1 X168.62 Y146.216 E7.5999
G1 X169.088 Y145.631 E7.6093
G1 X169.264 Y145.582 E7.61159
G1 X169.761 Y145.602 E7.61783
G1 X170.226 Y146.072 E7.62612
G1 X170.213 Y146.881 E7.63626
G1 F2700 E1.13626
G0 F9000 X164.297 Y146.461
M104 S195
G1 F2700 E7.63626
G1 F4080 X164.032 Y147.778 E7.65311
G1 X163.503 Y148.737 E7.66685
G1 X162.701 Y149.518 E7.68088
G1 X161.525 Y150.012 E7.69688
G1 X160.526 Y150.088 E7.70944
G1 X159.042 Y149.904 E7.7282
G1 X158.594 Y149.701 E7.73436
G1 X157.405 Y148.366 E7.75678
G1 X156.889 Y146.894 E7.77634
G1 X157.059 Y145.268 E7.79685
G1 X157.632 Y144.308 E7.81087
G1 X158.529 Y143.349 E7.82733
G1 X159.147 Y142.942 E7.83661
G1 X159.588 Y142.841 E7.84229
G1 X161.306 Y142.838 E7.86383
G1 X162.342 Y143.191 E7.87756
G1 X163.307 Y144.079 E7.894
G1 X163.962 Y145.163 E7.90988
G1 X164.297 Y146.461 E7.92669
G1 F2700 E1.42669
G0 F9000 X163.652 Y147.639
G1 F2700 E7.92669
G1 F4080 X163.181 Y148.493 E7.93892
G1 X162.478 Y149.178 E7.95123
G1 X161.43 Y149.618 E7.96549
G1 X160.535 Y149.686 E7.97674
G1 X159.091 Y149.507 E7.99499
G1 X158.893 Y149.435 E7.99763
G1 X157.755 Y148.157 E8.01909
G1 X157.296 Y146.848 E8.03649
G1 X157.448 Y145.396 E8.05479
G1 X157.953 Y144.55 E8.06715
G1 X158.821 Y143.622 E8.08309
G1 X159.246 Y143.329 E8.08956
G1 X159.589 Y143.241 E8.094
G1 X161.239 Y143.238 E8.11469
G1 X162.132 Y143.543 E8.12652
G1 X162.994 Y144.335 E8.1412
G1 X163.59 Y145.323 E8.15567
G1 X163.887 Y146.472 E8.17056
G1 X163.652 Y147.639 E8.18548
G0 F9000 X163.272 Y147.5
G1 F4080 X162.859 Y148.249 E8.19621
G1 X162.255 Y148.838 E8.20679
G1 X161.335 Y149.224 E8.2193
G1 X160.544 Y149.284 E8.22925
G1 X159.14 Y149.11 E8.24699
G1 X158.105 Y147.948 E8.26651
G1 X157.703 Y146.802 E8.28174
G1 X157.837 Y145.524 E8.29785
G1 X158.274 Y144.792 E8.30854
G1 X159.113 Y143.895 E8.32394
G1 X159.365 Y143.711 E8.32786
G1 X159.59 Y143.641 E8.33081
G1 X161.172 Y143.638 E8.35065
G1 X161.924 Y143.895 E8.36062
G1 X162.679 Y144.589 E8.37348
G1 X163.218 Y145.483 E8.38657
G1 X163.477 Y146.483 E8.39952
G1 X163.272 Y147.5 E8.41253
G0 F9000 X162.892 Y147.361
G1 F4080 X162.537 Y148.005 E8.42175
G1 X162.032 Y148.498 E8.4306
G1 X161.18 Y148.855 E8.44219
G1 X160.593 Y148.887 E8.44956
G1 X159.339 Y148.732 E8.46541
G1 X158.455 Y147.739 E8.48208
G1 X158.11 Y146.756 E8.49514
G1 X158.226 Y145.652 E8.50906
G1 X158.595 Y145.034 E8.51809
G1 X159.405 Y144.168 E8.53296
